lib/brands/icons/google-docs.svg

<svg xmlns="http://www.w3.org/2000/svg" fill="none" aria-hidden="true" viewBox="0 0 48 48"><g id="google-docs-Icon"><g id="Group"><path id="Vector" fill="#4285F4" d="M27.2722 6H13.3624C12.0549 6 10.9087 7.14475 10.9087 8.4551V39.5449C10.9087 40.8538 12.0534 42 13.3638 42H34.6361C35.945 42 37.0912 40.8552 37.0912 39.5449V15.8175L31.3645 11.7267L27.2722 6Z"/><path id="Vector_2" fill="#F1F1F1" d="M17.4531 32.181H30.5436V30.5453H17.4546L17.4531 32.181ZM17.4531 35.454H27.2707V33.8183H17.4531V35.454ZM17.4531 23.9993V25.6351H30.5436V23.9993H17.4531ZM17.4531 28.9081H30.5436V27.2723H17.4546L17.4531 28.9081Z"/><path id="Vector_3" fill="#A1C2FA" d="M27.272 6V13.3639C27.272 14.6728 28.4167 15.8175 29.7256 15.8175H37.0895L27.272 6Z"/></g></g></svg>

<svg xmlns="http://www.w3.org/2000/svg" fill="none" aria-hidden="true" viewBox="0 0 48 48"><path fill="#4285F4" d="M27.272 6h-13.91c-1.307 0-2.453 1.145-2.453 2.455v31.09c0 1.309 1.144 2.455 2.455 2.455h21.272c1.309 0 2.455-1.145 2.455-2.455V15.818l-5.727-4.091L27.273 6Z"/><path fill="#F1F1F1" d="M17.453 32.181h13.09v-1.636H17.456l-.002 1.636Zm0 3.273h9.818v-1.636h-9.818v1.636Zm0-11.455v1.636h13.09V24h-13.09Zm0 4.91h13.09v-1.637H17.456l-.002 1.636Z"/><path fill="#A1C2FA" d="M27.272 6v7.364c0 1.309 1.145 2.454 2.454 2.454h7.364L27.272 6Z"/></svg>
